X: 10304
T: Dolina MacKay
R: reel
M: 4/4
K: Adorian
A2A2 GAAB|BABd e2de|aeeg e2dB|A2Ae dBGB|
A2A2 GAAB|BABd e2de|aeeg e2dB|1 A2BG A2Aa:|2 A2BG A2Ae||
|:aeea e2de|aged e2de|gddg d2gd|efge fedB|
aeea e2de|aged e2de|aeeg e2dB|1 A2BG A2Ae:|2 A2BG A2Aa||
|:ABBd e2de|aged e2dg|GBBd e2de|gedB e2dB|
ABBd e2de|aged e2de|aeeg e2dB|1 A2BG A2Aa:|2 A2BG A2AB||
|:AaaA fgAa|Aaag e2dg|Ggge fgde|gedB e2dB|
AaaA fgAa|Aaag e2de|aeeg e2dB|1 A2BG A2AB:|2 A2BG A4||

